static/img/menu.svg

<?xml version="1.0" encoding="UTF-8"?>
<svg width="36px" height="24px" viewBox="0 0 36 24" version="1.1" xmlns="http://www.w3.org/2000/svg" xmlns:xlink="http://www.w3.org/1999/xlink">
    <!-- Generator: Sketch 50.2 (55047) - http://www.bohemiancoding.com/sketch -->
    <title>menu</title>
    <desc>Created with Sketch.</desc>
    <defs></defs>
    <g id="Mobile" stroke="none" stroke-width="1" fill="none" fill-rule="evenodd">
        <g id="Home-1" transform="translate(-465.000000, -51.000000)" fill="#000000" fill-rule="nonzero">
            <g id="menu" transform="translate(465.000000, 51.000000)">
                <path d="M1.35849057,3.05660377 L34.6415094,3.05660377 C35.3913962,3.05660377 36,2.448 36,1.69811321 C36,0.948226415 35.3913962,0.339622642 34.6415094,0.339622642 L1.35849057,0.339622642 C0.608603774,0.339622642 0,0.948226415 0,1.69811321 C0,2.448 0.608603774,3.05660377 1.35849057,3.05660377 Z" id="Shape"></path>
                <path d="M1.35849057,13.245283 L34.6415094,13.245283 C35.3913962,13.245283 36,12.6366792 36,11.8867925 C36,11.1369057 35.3913962,10.5283019 34.6415094,10.5283019 L1.35849057,10.5283019 C0.608603774,10.5283019 0,11.1369057 0,11.8867925 C0,12.6366792 0.608603774,13.245283 1.35849057,13.245283 Z" id="Shape"></path>
                <path d="M1.35849057,23.4339623 L34.6415094,23.4339623 C35.3913962,23.4339623 36,22.8253585 36,22.0754717 C36,21.3255849 35.3913962,20.7169811 34.6415094,20.7169811 L1.35849057,20.7169811 C0.608603774,20.7169811 0,21.3255849 0,22.0754717 C0,22.8253585 0.608603774,23.4339623 1.35849057,23.4339623 Z" id="Shape"></path>
            </g>
        </g>
    </g>
</svg>

<svg height="24" viewBox="0 0 36 24" width="36" xmlns="http://www.w3.org/2000/svg"><g><path d="m1.35849057 3.05660377h33.28301883c.7498868 0 1.3584906-.60860377 1.3584906-1.35849056s-.6086038-1.35849057-1.3584906-1.35849057h-33.28301883c-.7498868 0-1.35849057.60860378-1.35849057 1.35849057s.60860377 1.35849056 1.35849057 1.35849056z"/><path d="m1.35849057 13.245283h33.28301883c.7498868 0 1.3584906-.6086038 1.3584906-1.3584905 0-.7498868-.6086038-1.3584906-1.3584906-1.3584906h-33.28301883c-.7498868 0-1.35849057.6086038-1.35849057 1.3584906 0 .7498867.60860377 1.3584905 1.35849057 1.3584905z"/><path d="m1.35849057 23.4339623h33.28301883c.7498868 0 1.3584906-.6086038 1.3584906-1.3584906s-.6086038-1.3584906-1.3584906-1.3584906h-33.28301883c-.7498868 0-1.35849057.6086038-1.35849057 1.3584906s.60860377 1.3584906 1.35849057 1.3584906z"/></g></svg>
